docs/public/static/sponsors/doit-light.svg

<svg fill="none" height="25" viewBox="0 0 60 25" width="60" xmlns="http://www.w3.org/2000/svg"><path d="m24.2375 16.8221c-1.3212 0-2.3691-1.0706-2.3691-2.369s1.0707-2.369 2.3691-2.369 2.369 1.0706 2.369 2.369-1.0479 2.369-2.369 2.369zm0-7.92708c-3.0524 0-5.5354 2.48288-5.5354 5.53528s2.483 5.5581 5.5354 5.5581c3.0523 0 5.5353-2.4829 5.5353-5.5353 0-3.0752-2.483-5.55808-5.5353-5.55808z" fill="#000433"/><path d="m49.6815 12.8589c-.8656 0-1.5717.7062-1.5717 1.5718 0 1.3212-1.0706 2.369-2.369 2.369-1.3212 0-2.3691-1.0706-2.3691-2.369v-2.369h2.7563c.8656 0 1.5718-.7062 1.5718-1.5718 0-.86558-.7062-1.57173-1.5718-1.57173h-2.7563v-2.32347c0-.8656-.7061-1.57175-1.5717-1.57175s-1.5718.70615-1.5718 1.57175v7.836c0 1.3212-1.0706 2.369-2.369 2.369s-2.369-1.0706-2.369-2.369v-3.9408c0-.86558-.7062-1.57173-1.5718-1.57173s-1.5717.70615-1.5717 1.57173v3.9636c0 3.0524 2.4829 5.5353 5.5353 5.5353 1.549 0 2.9613-.6378 3.9635-1.6629 1.0023 1.0251 2.4146 1.6629 3.9636 1.6629 3.0524 0 5.5353-2.4829 5.5353-5.5353-.0911-.8884-.7973-1.5946-1.6629-1.5946z" fill="#fc3165"/><path d="m32.3919 7.20944c.0456.09112.0911.18223.1367.27335.0455.09112.1139.15945.205.25057.0911.09111.1594.13667.2506.20501.0911.04556.1822.1139.2733.13667.0911.04556.205.06834.2961.09112s.205.02278.3189.02278c.4101 0 .8201-.15945 1.1162-.45558.0683-.06834.1367-.15945.205-.25057.0456-.09112.1139-.18223.1367-.27335.0456-.09112.0683-.20501.0911-.29613.0228-.09111.0228-.20501.0228-.29612 0-.1139 0-.20502-.0228-.31891-.0228-.09112-.0455-.20501-.0911-.29613-.0456-.09111-.0911-.18223-.1367-.27335-.0683-.09111-.1367-.15945-.205-.25057-.3645-.36446-.9112-.54669-1.4123-.4328-.0911.02278-.205.04556-.2961.09112s-.1823.09111-.2734.13667-.1594.1139-.2505.20501c-.0684.06834-.1367.15946-.2051.25057-.0455.09112-.1138.18224-.1366.27335-.0228.09112-.0684.20501-.0911.29613-.0228.11389-.0228.20501-.0228.31891 0 .11389.0228.20501.0228.29612 0 .09112.0227.18224.0683.29613z" fill="#fc3165"/><path d="m17.7906 14.3166c.0228-2.984.0228-4.57856 0-7.56261 0-1.02506-.6606-1.75399-1.5945-1.75399-.934 0-1.5945.72893-1.5945 1.75399v2.55125c-.2278-.09112-.3873-.13668-.5467-.20501-2.6652-.91116-5.60369.29613-6.83375 2.84737-1.23007 2.5513-.38725 5.6037 2.00455 7.1071 1.8451 1.1617 3.7585 1.23 5.672.205 1.9134-1.0706 2.8929-2.7563 2.8929-4.9431zm-7.2893 1.7085c-.86558-.934-.8428-2.5057.0684-3.3713.9567-.9112 2.5057-.8656 3.394.1139.8884.9567.8429 2.4601-.1139 3.3485-.9567.8656-2.4829.8428-3.3485-.0911z" fill="#000433"/></svg>

<svg width="60" height="25" viewBox="0 0 60 25" fill="none" xmlns="http://www.w3.org/2000/svg">
<path d="M24.2375 16.8221C22.9163 16.8221 21.8684 15.7515 21.8684 14.4531C21.8684 13.1547 22.9391 12.0841 24.2375 12.0841C25.5359 12.0841 26.6065 13.1547 26.6065 14.4531C26.6065 15.7515 25.5586 16.8221 24.2375 16.8221ZM24.2375 8.89502C21.1851 8.89502 18.7021 11.3779 18.7021 14.4303C18.7021 17.4827 21.1851 19.9884 24.2375 19.9884C27.2898 19.9884 29.7728 17.5055 29.7728 14.4531C29.7728 11.3779 27.2898 8.89502 24.2375 8.89502Z" fill="#000433"/>
<path d="M49.6815 12.8589C48.8159 12.8589 48.1098 13.5651 48.1098 14.4307C48.1098 15.7519 47.0392 16.7997 45.7408 16.7997C44.4196 16.7997 43.3717 15.7291 43.3717 14.4307V12.0617H46.128C46.9936 12.0617 47.6998 11.3555 47.6998 10.4899C47.6998 9.62432 46.9936 8.91817 46.128 8.91817H43.3717V6.5947C43.3717 5.7291 42.6656 5.02295 41.8 5.02295C40.9344 5.02295 40.2282 5.7291 40.2282 6.5947V14.4307C40.2282 15.7519 39.1576 16.7997 37.8592 16.7997C36.5608 16.7997 35.4902 15.7291 35.4902 14.4307V10.4899C35.4902 9.62432 34.784 8.91817 33.9184 8.91817C33.0528 8.91817 32.3467 9.62432 32.3467 10.4899V14.4535C32.3467 17.5059 34.8296 19.9888 37.882 19.9888C39.431 19.9888 40.8433 19.351 41.8455 18.3259C42.8478 19.351 44.2601 19.9888 45.8091 19.9888C48.8615 19.9888 51.3444 17.5059 51.3444 14.4535C51.2533 13.5651 50.5471 12.8589 49.6815 12.8589Z" fill="#FC3165"/>
<path d="M32.3919 7.20944C32.4375 7.30056 32.483 7.39167 32.5286 7.48279C32.5741 7.57391 32.6425 7.64224 32.7336 7.73336C32.8247 7.82447 32.893 7.87003 32.9842 7.93837C33.0753 7.98393 33.1664 8.05227 33.2575 8.07504C33.3486 8.1206 33.4625 8.14338 33.5536 8.16616C33.6447 8.18894 33.7586 8.18894 33.8725 8.18894C34.2826 8.18894 34.6926 8.02949 34.9887 7.73336C35.057 7.66502 35.1254 7.57391 35.1937 7.48279C35.2393 7.39167 35.3076 7.30056 35.3304 7.20944C35.376 7.11832 35.3987 7.00443 35.4215 6.91331C35.4443 6.8222 35.4443 6.7083 35.4443 6.61719C35.4443 6.50329 35.4443 6.41217 35.4215 6.29828C35.3987 6.20716 35.376 6.09327 35.3304 6.00215C35.2848 5.91104 35.2393 5.81992 35.1937 5.7288C35.1254 5.63769 35.057 5.56935 34.9887 5.47823C34.6242 5.11377 34.0775 4.93154 33.5764 5.04543C33.4853 5.06821 33.3714 5.09099 33.2803 5.13655C33.1892 5.18211 33.098 5.22766 33.0069 5.27322C32.9158 5.31878 32.8475 5.38712 32.7564 5.47823C32.688 5.54657 32.6197 5.63769 32.5513 5.7288C32.5058 5.81992 32.4375 5.91104 32.4147 6.00215C32.3919 6.09327 32.3463 6.20716 32.3236 6.29828C32.3008 6.41217 32.3008 6.50329 32.3008 6.61719C32.3008 6.73108 32.3236 6.8222 32.3236 6.91331C32.3236 7.00443 32.3463 7.09555 32.3919 7.20944Z" fill="#FC3165"/>
<path d="M17.7906 14.3166C17.8134 11.3326 17.8134 9.73804 17.7906 6.75399C17.7906 5.72893 17.13 5 16.1961 5C15.2621 5 14.6016 5.72893 14.6016 6.75399C14.6016 8.05239 14.6016 7.9385 14.6016 9.30524C14.3738 9.21412 14.2143 9.16856 14.0549 9.10023C11.3897 8.18907 8.45121 9.39636 7.22115 11.9476C5.99108 14.4989 6.8339 17.5513 9.2257 19.0547C11.0708 20.2164 12.9842 20.2847 14.8977 19.2597C16.8111 18.1891 17.7906 16.5034 17.7906 14.3166ZM10.5013 16.0251C9.63572 15.0911 9.6585 13.5194 10.5697 12.6538C11.5264 11.7426 13.0754 11.7882 13.9637 12.7677C14.8521 13.7244 14.8066 15.2278 13.8498 16.1162C12.8931 16.9818 11.3669 16.959 10.5013 16.0251Z" fill="#000433"/>
</svg>
